svg/u1f191.svg

<svg viewBox="0 0 128 128" xmlns="http://www.w3.org/2000/svg">
  <g>
    <path d="M116,4H12c-4.42,0-8,3.58-8,8v104c0,4.42,3.58,8,8,8h104c4.42,0,8-3.58,8-8V12 C124,7.58,120.42,4,116,4z" fill="#CC3333"/>
    <path d="M109.7,4H11.5C7.37,4.03,4.03,7.37,4,11.5v97.9c-0.01,4.14,3.34,7.49,7.48,7.5c0.01,0,0.01,0,0.02,0 h98.1c4.14,0.01,7.49-3.34,7.5-7.48c0-0.01,0-0.01,0-0.02V11.5c0.09-4.05-3.13-7.41-7.18-7.5C109.85,4,109.77,4,109.7,4z" fill="#F44336"/>
    <path d="M39.7,12.9c0-2.3-1.6-3-10.8-2.7c-7.7,0.3-11.5,1.2-13.8,4s-2.9,8.5-3,15.3c0,4.8,0,9.3,2.5,9.3 c3.4,0,3.4-7.9,6.2-12.3C26.2,17.8,39.7,15.9,39.7,12.9z" fill="#FF8A80"/>
    <g>
      <path d="M28.33,89.2c-4.4-2.53-7.86-5.98-10.39-10.35c-2.53-4.37-3.79-9.21-3.79-14.53 c0-5.32,1.27-10.16,3.79-14.53c2.53-4.37,5.99-7.82,10.39-10.35c4.4-2.53,9.25-3.8,14.57-3.8c8.28,0,15.13,2.99,20.55,8.97 l-7.28,7.05c-3.53-4.14-7.92-6.21-13.19-6.21c-3.42,0-6.54,0.78-9.35,2.34c-2.81,1.56-5.02,3.77-6.63,6.63 c-1.61,2.86-2.42,6.16-2.42,9.89c0,3.73,0.81,7.03,2.42,9.89c1.61,2.86,3.82,5.07,6.63,6.63c2.81,1.56,5.93,2.34,9.35,2.34 c5.78,0,10.61-2.4,14.49-7.21l7.36,6.98c-2.71,3.27-5.92,5.76-9.62,7.48c-3.71,1.71-7.81,2.57-12.31,2.57 C37.58,92.99,32.73,91.73,28.33,89.2z" fill="#FAFAFA"/>
      <path d="M74.41,36.87h10.35v45.08h23.23v9.81H74.41V36.87z" fill="#FAFAFA"/>
    </g>
  </g>
</svg>

<svg viewBox="0 0 128 128" xmlns="http://www.w3.org/2000/svg">
  <defs/>
  <path d="M116,4 L12,4 C7.58,4 4,7.58 4,12 L4,116 C4,120.42 7.58,124 12,124 L116,124 C120.42,124 124,120.42 124,116 L124,12 C124,7.58 120.42,4 116,4 Z" fill="#CC3333"/>
  <path d="M109.7,4 L11.5,4 C7.37,4.03 4.03,7.37 4,11.5 L4,109.4 C3.99,113.54 7.34,116.89 11.48,116.9 C11.49,116.9 11.49,116.9 11.5,116.9 L109.6,116.9 C113.74,116.91 117.09,113.56 117.1,109.42 C117.1,109.41 117.1,109.41 117.1,109.4 L117.1,11.5 C117.19,7.45 113.97,4.09 109.92,4 C109.85,4 109.77,4 109.7,4 Z" fill="#F44336"/>
  <path d="M39.7,12.9 C39.7,10.6 38.1,9.9 28.9,10.2 C21.2,10.5 17.4,11.4 15.1,14.2 C12.8,17 12.2,22.7 12.1,29.5 C12.1,34.3 12.1,38.8 14.6,38.8 C18,38.8 18,30.9 20.8,26.5 C26.2,17.8 39.7,15.9 39.7,12.9 Z" fill="#FF8A80"/>
  <path d="M28.33,89.2 C23.93,86.67 20.47,83.22 17.94,78.85 C15.41,74.48 14.15,69.64 14.15,64.32 C14.15,59 15.42,54.16 17.94,49.79 C20.47,45.42 23.93,41.97 28.33,39.44 C32.73,36.91 37.58,35.64 42.9,35.64 C51.18,35.64 58.03,38.63 63.45,44.61 L56.17,51.66 C52.64,47.52 48.25,45.45 42.98,45.45 C39.56,45.45 36.44,46.23 33.63,47.79 C30.82,49.35 28.61,51.56 27,54.42 C25.39,57.28 24.58,60.58 24.58,64.31 C24.58,68.04 25.39,71.34 27,74.2 C28.61,77.06 30.82,79.27 33.63,80.83 C36.44,82.39 39.56,83.17 42.98,83.17 C48.76,83.17 53.59,80.77 57.47,75.96 L64.83,82.94 C62.12,86.21 58.91,88.7 55.21,90.42 C51.5,92.13 47.4,92.99 42.9,92.99 C37.58,92.99 32.73,91.73 28.33,89.2 Z" fill="#FAFAFA"/>
  <path d="M74.41,36.87 L84.76,36.87 L84.76,81.95 L107.99,81.95 L107.99,91.76 L74.41,91.76 L74.41,36.87 Z" fill="#FAFAFA"/>
</svg>
